iconography/32x32/Rabbit.svg

<svg width="32" height="32" viewBox="0 0 32 32" fill="none" xmlns="http://www.w3.org/2000/svg">
<path d="M4.00032 16.0016C4.00032 12.2065 3.99937 8.41148 4.00095 4.61643C4.00127 3.43045 4.43722 3.00241 5.63491 3.00209C6.34852 3.00178 7.06213 2.99608 7.77575 3.00494C8.67552 3.01571 9.18429 3.52448 9.18619 4.42552C9.19157 6.9659 9.18556 9.50628 9.19062 12.0467C9.19252 13.0819 9.63323 13.5144 10.6631 13.5169C11.0665 13.5179 11.4698 13.5179 11.8732 13.5169C12.9828 13.5144 13.3992 13.1069 13.4001 12.0131C13.402 9.55029 13.4004 7.08716 13.4011 4.62434C13.4014 3.4447 13.8446 3.00463 15.0334 3.00273C15.7315 3.00178 16.4296 3.00051 17.1277 3.00304C18.1193 3.00684 18.5926 3.46781 18.5942 4.44641C18.5983 6.95577 18.5948 9.46512 18.5967 11.9745C18.5977 13.0993 19.015 13.5163 20.1367 13.5169C22.4326 13.5182 24.7286 13.5154 27.0249 13.5188C28.1419 13.5204 28.6294 14.0143 28.63 15.1386C28.6313 19.2436 28.6316 23.3483 28.63 27.4533C28.6297 28.5322 28.1574 28.9992 27.0711 28.9995C19.8881 29.0002 12.7055 29.0002 5.52252 28.9995C4.43501 28.9995 4.00222 28.5686 4.00158 27.4805C3.99905 23.6538 4.00032 19.8277 4.00032 16.0016ZM21.1596 23.6785C21.6241 23.6785 22.0895 23.6981 22.5526 23.674C23.3638 23.6322 23.7962 23.1744 23.8035 22.3681C23.8111 21.549 23.8143 20.7297 23.8016 19.9106C23.7918 19.2619 23.384 18.7737 22.7524 18.6977C21.7675 18.579 20.7753 18.5816 19.79 18.687C19.0682 18.7642 18.6316 19.2863 18.6246 20.0072C18.617 20.7955 18.6161 21.5839 18.6252 22.3719C18.6338 23.1279 19.1413 23.6455 19.9062 23.6763C20.3232 23.693 20.7417 23.6794 21.1596 23.6785Z" stroke="#002E42" stroke-width="2" stroke-linecap="round"/>
</svg>

<svg width="32" height="32" fill="none" xmlns="http://www.w3.org/2000/svg"><path d="M4 16.002V4.616c.001-1.186.437-1.614 1.635-1.614.714 0 1.427-.006 2.14.003.9.01 1.41.52 1.411 1.42.006 2.54 0 5.081.005 7.622.002 1.035.442 1.467 1.472 1.47h1.21c1.11-.003 1.526-.41 1.527-1.504.002-2.463 0-4.926.001-7.389 0-1.18.444-1.62 1.632-1.621.699-.001 1.397-.002 2.095 0 .991.004 1.465.465 1.466 1.443.004 2.51 0 5.02.003 7.529 0 1.124.418 1.541 1.54 1.542 2.296.001 4.592-.002 6.888.002 1.117.001 1.604.495 1.605 1.62.001 4.105.002 8.21 0 12.314 0 1.08-.473 1.546-1.559 1.547H5.523c-1.088 0-1.52-.431-1.521-1.52C3.999 23.654 4 19.828 4 16.002Zm17.16 7.677c.464 0 .93.02 1.393-.005.81-.042 1.243-.5 1.25-1.306.008-.819.011-1.638-.001-2.457-.01-.65-.418-1.137-1.05-1.213a13.096 13.096 0 0 0-2.962-.011c-.722.077-1.158.6-1.165 1.32-.008.788-.009 1.577 0 2.365.009.756.516 1.273 1.281 1.304.417.017.836.003 1.254.003Z" stroke="#002E42" stroke-width="2" stroke-linecap="round"/></svg>
